!!!COM: Music21
!!!OTL: Muiñeira
!!!OMV: pezas_muineiras_muineira-42_muineira-partitura.musicxml
**kern
*I"Bagpipes
*I'Bag
*clefG^2
*k[]
*M2/4
=1
!LO:TX:a:t=Allegretto
*MM120
!LO:TX:a:t=[quarter]=120
4.r
16eeLL
16ggJJ
=||
8ccL
16eeL
16ggJJ
16cccLL
16bb
16aa
16bbJJ
=
8aaL
16ggL
16eeJJ
8ggL
16ffL
16ddJJ
=
8ffL
16eeL
16ccJJ
16eeLL
16ff
16dd
16bJJ
=
8ddL
8ccJ
8eeL
8ggJ
=
8ccL
16eeL
16ggJJ
16cccLL
16bb
16aa
16bbJJ
=
8aaL
16ggL
16eeJJ
8ggL
16ffL
16ddJJ
!!linebreak:original
=
8ffL
16eeL
16ccJJ
16eeLL
16ff
16dd
16bJJ
=
4.cc
16eeLL
16ggJJ
=||
8ccL
16eeL
16ggJJ
16cccLL
16bb
16aa
16bbJJ
=
8aaL
16ggL
16eeJJ
8ggL
16ffL
16ddJJ
=
8ffL
16eeL
16ccJJ
16eeLL
16ff
16dd
16bJJ
=
8ddL
8ccJ
8eeL
8ggJ
=
8ccL
16eeL
16ggJJ
16cccLL
16bb
16aa
16bbJJ
!!linebreak:original
=
8aaL
16ggL
16eeJJ
8ggL
16ffL
16ddJJ
!!linebreak:original
=
8ffL
16eeL
16ccJJ
16eeLL
16ff
16dd
16bJJ
=
4cc
8ccL
16eeL
16ffJJ
=||
8.ggL
16eeJk
12ffL
12gg
12aaJ
=
12ggL
12ee
12ccJ
8eeL
8ggJ
=
12ffL
12dd
12bJ
8ddL
8ffJ
=
12eeL
12dd
12ccJ
12ccL
12ee
12ffJ
=
8.ggL
16eeJk
12ffL
12gg
12aaJ
!!linebreak:original
=
12.ggL
24eeK
12ccJ
12.ggL
24ffK
12ddJ
=
12.ffL
24eeK
12ccJ
16eeLL
16ff
16dd
16bJJ
=
[4cc
8ccL]
16eeL
16ffJJ
=||
8.ggL
16eeJk
12ffL
12gg
12aaJ
=
12ggL
12ee
12ccJ
8eeL
8ggJ
=
12ffL
12dd
12bJ
8ddL
8ffJ
=
12eeL
12dd
12ccJ
12ccL
12ee
12ffJ
!!linebreak:original
=
8.ggL
16eeJk
12ffL
12gg
12aaJ
!!linebreak:original
=
12.ggL
24eeK
12ccJ
12.ggL
24ffK
12ddJ
=
12.ffL
24eeK
12ccJ
16eeLL
16ff
16dd
16bJJ
=
[4cc
8ccL]
16eeL
16ggJJ
=||
8ccL
16eeL
16ggJJ
16cccLL
16bb
16aa
16bbJJ
=
8aaL
16ggL
16eeJJ
8ggL
16ffL
16ddJJ
=
8ffL
16eeL
16ccJJ
16eeLL
16ff
16dd
16bJJ
!!linebreak:original
=
8ddL
8ccJ
8eeL
8ggJ
=
8ccL
16eeL
16ggJJ
16cccLL
16bb
16aa
16bbJJ
=
8aaL
16ggL
16eeJJ
8ggL
16ffL
16ddJJ
=
8ffL
16eeL
16ccJJ
16eeLL
16ff
16dd
16bJJ
=
4.cc
16eeLL
16ggJJ
=||
8ccL
16eeL
16ggJJ
16cccLL
16bb
16aa
16bbJJ
=
8aaL
16ggL
16eeJJ
8ggL
16ffL
16ddJJ
!!linebreak:original
=
8ffL
16eeL
16ccJJ
16eeLL
16ff
16dd
16bJJ
!!linebreak:original
=
8ddL
8ccJ
8eeL
8ggJ
=
8ccL
16eeL
16ggJJ
16cccLL
16bb
16aa
16bbJJ
=
8aaL
16ggL
16eeJJ
8ggL
16ffL
16ddJJ
=
8ffL
16eeL
16ccJJ
16eeLL
16ff
16dd
16bJJ
=
[4cc
8ccL]
8ggJ
=||
8.ggL
16ggJk
12ggL
12ff
12eeJ
=
12ffL
12gg
12aaJ
8.ddL
16ffJk
!!linebreak:original
=
8.ffL
16ffJk
12ffL
12ee
12ddJ
=
12eeL
12gg
12eeJ
8.ccL
16ggJk
=
8.ggL
16ggJk
12ggL
12ff
12eeJ
=
12ffL
12gg
12aaJ
8.ddL
16ffJk
=
8.ffL
16ffJk
12ffL
12ee
12ddJ
=
[4cc
8ccL]
8ggJ
=||
8.ggL
16ggJk
12ggL
12ff
12eeJ
=
12ffL
12gg
12aaJ
8.ddL
16ffJk
!!linebreak:original
=
8.ffL
16ffJk
12ffL
12ee
12ddJ
=
12eeL
12gg
12eeJ
8.ccL
16ggJk
=
8.ggL
16ggJk
12ggL
12ff
12eeJ
=
12ffL
12gg
12aaJ
8.ddL
16ffJk
=
8.ffL
16ffJk
12ffL
12ee
12ddJ
=
[4cc
8ccL]
16eeL
16ggJJ
==
*-
